%
O0
G40 G49 G80
( BEGIN TOOL LIST )
( TOOL 3 - .25 EM - DESC: 0.2497 DIA, 3 FLUTE,  CARBIDE MAT )
( ENDOF TOOL LIST )
(2 1/2 Axis Profiling)
(Tool Diameter = 0.2497 Length = 3.5 )
G20 T03 M6
M08
S12000 M03
G90 G00 X4.8752 Y0.
G43 Z0.25 H03
G01 Z0. F18.
Y4. F36.
G17
G03 X4. Y4.8752 I-0.8752 J0.
G01 X-4.
G03 X-4.8752 Y4. I0. J-0.8752
G01 Y1.
G03 X-4. Y0.1248 I0.8752 J0.
G01 X-2.
G02 X0.1248 Y-2. I0. J-2.1248
G01 Y-4.
G03 X1. Y-4.8752 I0.8752 J0.
G01 X4.
G03 X4.8752 Y-4. I0. J0.8752
G01 Y0.
G00 Z0.25
M05
M09
G28 G91 Z0.0
M30
%
